X: 32707
T: Polka De Gustave Ythier
R: polka
M: 2/4
K: Dmixolydian
ag ag|e/f/g/f/ e/c/e/g/|ag ag|1 e/f/g/f/ e2:|2 e/f/g/f/ e>g||
fd c>d|e/f/e/d/ c/d/e/g/|fd c>d|1 e/f/e/c/ d>g:|2 e/f/e/c/ d2||

